assets/moon-fill.svg

<svg xmlns="http://www.w3.org/2000/svg" fill="none" viewBox="0 0 27 28">
  <path fill="#2A2238" d="M10.5004.485334c.1709.20758.2755.46162.3005.729296.0249.26767-.0309.53668-.1605.77227-1.01174 1.85765-1.54014 3.93993-1.53652 6.05525 0 7.03705 5.73672 12.73525 12.80702 12.73525.9223 0 1.8201-.0962 2.6829-.28.2645-.0573.54-.0353.7921.063.2521.0984.4696.2688.6254.49.1645.2301.2484.508.2386.7907-.0098.2826-.1128.5541-.2928.7722-1.3726 1.686-3.1042 3.0446-5.0685 3.9765-1.9643.9318-4.1118 1.4136-6.286 1.4102C6.53477 28 0 21.5002 0 13.4919 0 7.46462 3.69966 2.29491 8.96737.103818c.26241-.11089916.55371-.1336607.83015-.0648656.27648.0687946.52308.2254316.70288.4463816Z"/>
</svg>

<svg width="27" height="28" viewBox="0 0 27 28" fill="none" xmlns="http://www.w3.org/2000/svg">
<path d="M10.5004 0.485334C10.6713 0.692914 10.7759 0.946954 10.8009 1.21463C10.8258 1.4823 10.77 1.75131 10.6404 1.9869C9.62866 3.84455 9.10026 5.92683 9.10388 8.04215C9.10388 15.0792 14.8406 20.7774 21.9109 20.7774C22.8332 20.7774 23.731 20.6812 24.5938 20.4974C24.8583 20.4401 25.1338 20.4621 25.3859 20.5604C25.638 20.6588 25.8555 20.8292 26.0113 21.0504C26.1758 21.2805 26.2597 21.5584 26.2499 21.8411C26.2401 22.1237 26.1371 22.3952 25.9571 22.6133C24.5845 24.2993 22.8529 25.6579 20.8886 26.5898C18.9243 27.5216 16.7768 28.0034 14.6026 28C6.53477 28 0 21.5002 0 13.4919C0 7.46462 3.69966 2.29491 8.96737 0.103818C9.22978 -0.00708116 9.52108 -0.0298427 9.79752 0.0389524C10.074 0.107747 10.3206 0.264384 10.5004 0.485334Z" fill="#2A2238"/>
</svg>
